icon-themes/breeze_svg/cmd/32/snapborder.svg

<svg viewBox="0 0 32 32" xmlns="http://www.w3.org/2000/svg"><path d="m6 4v24h12 1l7-7v-4h-1v3h-7v7h-11v-22h9v-1zm15 0c-1.656862 0-3 1.3431371-3 3v3h-2v6h10v-6h-2v-3c0-1.6568629-1.343138-3-3-3zm0 1c1.104569 0 2 .8954305 2 2v3h-4v-3c0-1.1045695.895431-2 2-2zm-4 6h8v4h-8z" fill="#4d4d4d"/></svg>

<svg xmlns="http://www.w3.org/2000/svg" viewBox="0 0 32 32">
 <path 
     style="fill:#4d4d4d" 
     d="M 6 4 L 6 28 L 18 28 L 19 28 L 26 21 L 26 17 L 25 17 L 25 20 L 18 20 L 18 27 L 7 27 L 7 5 L 16 5 L 16 4 L 6 4 z M 21 4 C 19.343138 4 18 5.3431371 18 7 L 18 10 L 16 10 L 16 16 L 26 16 L 26 10 L 24 10 L 24 7 C 24 5.3431371 22.656862 4 21 4 z M 21 5 C 22.104569 5 23 5.8954305 23 7 L 23 10 L 19 10 L 19 7 C 19 5.8954305 19.895431 5 21 5 z M 17 11 L 25 11 L 25 15 L 17 15 L 17 11 z "
     />
</svg>
